build/img/hand.svg

<svg width="44" height="40" viewBox="0 0 44 40" fill="none" xmlns="http://www.w3.org/2000/svg">
<path fill-rule="evenodd" clip-rule="evenodd" d="M21.5225 0C20.557 0 19.683 0.391128 19.05 1.02404C18.4175 1.65695 18.026 2.53099 18.026 3.49647C18.026 4.46163 18.4175 5.33599 19.05 5.96857C19.683 6.60149 20.557 6.99294 21.5225 6.99294C22.488 6.99294 23.362 6.60149 23.9949 5.96857C24.6275 5.33599 25.0189 4.46163 25.0189 3.49647C25.0189 2.53099 24.6275 1.65695 23.9949 1.02404C23.362 0.391128 22.488 0 21.5225 0ZM22.8057 2.21321C22.4774 1.88492 22.0238 1.68162 21.5225 1.68162C21.0215 1.68162 20.5675 1.88492 20.2392 2.21321C19.9109 2.54151 19.708 2.99514 19.708 3.49647C19.708 3.99747 19.9109 4.45143 20.2392 4.77973C20.5675 5.1077 21.0215 5.31099 21.5225 5.31099C22.0238 5.31099 22.4774 5.10803 22.8057 4.77973C23.134 4.45143 23.337 3.99747 23.337 3.49647C23.337 2.99514 23.134 2.54151 22.8057 2.21321ZM30.6286 0.380931L20.8228 15.2524C20.5688 15.6389 20.6761 16.158 21.0626 16.4119C21.4491 16.6659 21.9682 16.5586 22.2222 16.1721L32.028 1.30069C32.282 0.914168 32.1747 0.395076 31.7882 0.141122C31.4017 -0.112832 30.8826 -0.00559229 30.6286 0.380931ZM31.3283 9.56011C30.3628 9.56011 29.4885 9.95157 28.8559 10.5842C28.2233 11.2171 27.8318 12.0914 27.8318 13.0566C27.8318 14.0221 28.2233 14.8961 28.8559 15.529C29.4888 16.1616 30.3628 16.5531 31.3283 16.5531C32.2938 16.5531 33.1678 16.1616 33.8004 15.529C34.4333 14.8961 34.8248 14.0221 34.8248 13.0566C34.8248 12.0911 34.4333 11.2171 33.8004 10.5842C33.1678 9.95157 32.2938 9.56011 31.3283 9.56011ZM32.6112 11.7733C32.2833 11.4454 31.8293 11.2421 31.3283 11.2421C30.827 11.2421 30.3734 11.445 30.0451 11.7733C29.7168 12.1016 29.5135 12.5556 29.5135 13.0566C29.5135 13.5579 29.7168 14.0115 30.0451 14.3398C30.3734 14.6681 30.827 14.8711 31.3283 14.8711C31.8293 14.8711 32.2833 14.6681 32.6112 14.3398C32.9399 14.0115 33.1428 13.5579 33.1428 13.0566C33.1428 12.5556 32.9399 12.102 32.6112 11.7733ZM19.8146 26.1273C20.1432 25.7981 20.1432 25.2652 19.8146 24.9359C19.4856 24.6076 18.9527 24.6076 18.6234 24.9359C18.2951 25.2652 18.2951 25.7981 18.6234 26.1273C18.9527 26.4556 19.4856 26.4556 19.8146 26.1273ZM10.8854 39.7579C10.5548 40.0836 10.0235 40.08 9.69721 39.751L0.244333 30.2258C-0.0819917 29.8972 -0.0813338 29.3666 0.245648 29.0386L4.25069 25.0217C4.85794 24.4145 5.70204 24.1723 6.50239 24.324C8.40277 20.8121 11.9433 18.941 15.9961 18.941C17.4586 18.941 18.8761 19.2239 20.212 19.7828H29.6C30.6336 19.7828 31.5902 20.264 32.2175 21.0361L37.1854 15.93C38.3871 14.5366 40.4996 14.3658 41.9099 15.5544C43.329 16.7541 43.5083 18.8831 42.3099 20.3009C34.7192 29.3731 34.7036 29.3994 34.681 29.4165C34.6795 29.4176 34.678 29.4187 34.6745 29.4222C33.2518 30.8067 31.3751 31.5693 29.3895 31.5693H18.1974C17.5395 31.5693 16.9171 31.8209 16.4444 32.2775L15.5664 33.1242C15.8714 34.0167 15.6605 35.0434 14.9671 35.7368L10.8854 39.7579ZM19.7021 21.396C18.532 20.8841 17.2852 20.6246 15.9957 20.6246C12.3979 20.6246 9.50543 22.2693 7.96394 25.1612L14.5595 31.7564L15.275 31.0659C16.0625 30.3051 17.1007 29.8857 18.1974 29.8857H29.3895C30.9198 29.8857 32.3675 29.3031 33.4702 28.2445L41.0214 19.2173C41.623 18.5051 41.5332 17.4406 40.824 16.8409C40.1154 16.2435 39.0503 16.3333 38.4503 17.0416C38.4307 17.0649 38.1165 17.3878 36.4424 19.1083C35.6326 19.9405 34.5046 21.0997 32.9379 22.7101C32.957 22.8555 32.9675 23.0023 32.9675 23.1503C32.9675 25.0072 31.457 26.5178 29.6 26.5178H22.7311C22.2663 26.5178 21.8893 26.1411 21.8893 25.676C21.8893 25.2112 22.2663 24.8342 22.7311 24.8342H29.6C30.5287 24.8342 31.2839 24.0789 31.2839 23.1503C31.2839 22.2111 30.5129 21.4667 29.6 21.4667H20.0396C19.9235 21.4667 19.8087 21.4427 19.7021 21.396ZM6.48463 26.0931C6.14613 25.8839 5.7198 25.9339 5.44216 26.2115L2.02925 29.6343L10.3015 37.9697L13.7812 34.5417C14.0697 34.2529 14.1049 33.7815 13.8585 33.4496C13.8141 33.39 6.61325 26.1714 6.48463 26.0931Z" fill="url(#paint0_linear)"/>
<defs>
<linearGradient id="paint0_linear" x1="43.1034" y1="20" x2="3.81787e-07" y2="20" gradientUnits="userSpaceOnUse">
<stop stop-color="#FF9900"/>
<stop offset="1" stop-color="#FFE91A"/>
</linearGradient>
</defs>
</svg>

<svg width="44" height="40" viewBox="0 0 44 40" fill="none" xmlns="http://www.w3.org/2000/svg"><path fill-rule="evenodd" clip-rule="evenodd" d="M21.523 0c-.966 0-1.84.391-2.473 1.024a3.487 3.487 0 00-1.024 2.472c0 .966.392 1.84 1.024 2.473a3.486 3.486 0 002.473 1.024c.965 0 1.839-.392 2.472-1.024a3.486 3.486 0 001.024-2.473c0-.965-.391-1.839-1.024-2.472A3.485 3.485 0 0021.522 0zm1.283 2.213a1.81 1.81 0 00-1.284-.531 1.81 1.81 0 00-1.283.531 1.809 1.809 0 00-.531 1.283 1.81 1.81 0 001.815 1.815 1.81 1.81 0 001.814-1.815c0-.5-.203-.954-.531-1.283zM30.629.381l-9.806 14.871a.837.837 0 101.4.92l9.805-14.871a.837.837 0 10-1.4-.92zm.7 9.18c-.966 0-1.84.39-2.473 1.023a3.487 3.487 0 00-1.024 2.473c0 .965.391 1.84 1.024 2.472a3.486 3.486 0 002.472 1.024c.966 0 1.84-.391 2.472-1.024a3.485 3.485 0 001.025-2.472c0-.966-.392-1.84-1.025-2.473a3.485 3.485 0 00-2.472-1.024zm1.282 2.212a1.81 1.81 0 00-1.283-.53 1.81 1.81 0 00-1.815 1.814 1.814 1.814 0 003.098 1.283 1.81 1.81 0 000-2.567zM19.815 26.127a.843.843 0 10-1.194-1.191.843.843 0 001.194 1.191zm-8.93 13.63a.842.842 0 01-1.188-.006L.244 30.226a.842.842 0 01.002-1.187l4.005-4.017a2.515 2.515 0 012.251-.698c1.9-3.512 5.441-5.383 9.494-5.383 1.463 0 2.88.283 4.216.842H29.6c1.034 0 1.99.481 2.617 1.253l4.968-5.106a3.376 3.376 0 014.725-.376 3.372 3.372 0 01.4 4.747c-7.59 9.072-7.606 9.098-7.629 9.116a7.538 7.538 0 01-5.291 2.153H18.197a2.51 2.51 0 00-1.753.708l-.878.846c.305.893.095 1.92-.599 2.613l-4.082 4.02zm8.817-18.361a9.19 9.19 0 00-3.706-.771c-3.598 0-6.49 1.644-8.032 4.536l6.595 6.595.716-.69a4.186 4.186 0 012.922-1.18H29.39a5.86 5.86 0 004.08-1.642l7.551-9.027a1.687 1.687 0 00-.197-2.376 1.69 1.69 0 00-2.374.2c-.02.024-.334.347-2.008 2.067l-3.504 3.602a3.371 3.371 0 01-3.338 3.808h-6.869a.842.842 0 110-1.684H29.6c.929 0 1.684-.755 1.684-1.684 0-.939-.771-1.683-1.684-1.683h-9.56a.84.84 0 01-.338-.071zM6.485 26.093a.84.84 0 00-1.043.119L2.03 29.634l8.273 8.336 3.48-3.428a.845.845 0 00.076-1.092c-.044-.06-7.245-7.279-7.373-7.357z" fill="url(#paint0_linear)"/><defs><linearGradient id="paint0_linear" x1="43.103" y1="20" x2="0" y2="20" gradientUnits="userSpaceOnUse"><stop stop-color="#F90"/><stop offset="1" stop-color="#FFE91A"/></linearGradient></defs></svg>
